!!!COM: Palestrina, Giovanni Perluigi da
!!!OPR: Missa Regina coeli (1601)
!!!OTL: Sanctus
**kern	**kern	**kern	**kern
*Ibass	*Itenor	*Icalto	*Icant
!Bassus	!Tenor	!Altus	!Cantus
*clefF4	*clefGv2	*clefG2	*clefG2
*k[b-]	*k[b-]	*k[b-]	*k[b-]
*F:ion	*F:ion	*F:ion	*F:ion
*M4/2	*M4/2	*M4/2	*M4/2
=1	=1	=1	=1
1C	1r	0r	0r
1D	1F	.	.
=2	=2	=2	=2
1C	1G	0r	0r
1D	1F	.	.
=3	=3	=3	=3
1E	1G	1r	0r
1F	1A	1c	.
=4	=4	=4	=4
2BB-	2B-	1d	1f
1F	2A	.	.
.	2G	1c	1g
2E	[2c	.	.
=5	=5	=5	=5
1D	4c]	1d	1f
.	4B-	.	.
.	4B-	.	.
.	4A	.	.
1C	1c	1e	1g
=6	=6	=6	=6
0r	4F	1f	1a
.	4G	.	.
.	4A	.	.
.	4F	.	.
.	1G	2e	1b-
.	.	2d	.
=7	=7	=7	=7
0r	2F	2f	2a
.	2c	2e	2g
.	4G	2d	1b-
.	4A	.	.
.	4B-	[2g	.
.	4c	.	.
=8	=8	=8	=8
0r	1d	4g]	2a
.	.	4f	.
.	.	1f	2f
.	1c	.	1g
.	.	2e	.
=9	=9	=9	=9
1F	2r	1f	1f
.	1c	.	.
2E	.	1r	1r
2D	2B-	.	.
=10	=10	=10	=10
1F	2A	0r	0r
.	2.d	.	.
2E	.	.	.
.	4c	.	.
2C	[2c	.	.
=11	=11	=11	=11
1D	2c]	2r	1r
.	2B	1f	.
1C	1c	.	2r
.	.	2e	2cc
=12	=12	=12	=12
1r	0r	2d	2b-
.	.	2f	2a
2r	.	2e	4cc
.	.	.	4b-
2F	.	2c	4a
.	.	.	4g
=13	=13	=13	=13
2D	2r	1d	4f
.	.	.	4d
2BB-	2B-	.	1f
1C	2A	1c	.
.	2G	.	2e
=14	=14	=14	=14
4GG	1B-	2r	2d
4AA	.	.	.
4BB-	.	1d	2.g
4C	.	.	.
1D	2A	.	.
.	.	.	4f
.	2F	2B-	[2f
=15	=15	=15	=15
1C	1G	1c	2f]
.	.	.	2e
1r	2.F	[1c	2.a
.	4G	.	4g
=16	=16	=16	=16
2r	4A	1c]	2f
.	4B-	.	.
2C	1c	.	2e
2G	.	1r	1d
2G	2B-	.	.
=17	=17	=17	=17
0A	1c	2r	1c
.	.	2F	.
.	2F	2c	2r
.	[2c	2c	2c
=18	=18	=18	=18
1G	2c]	1.d	2g
.	2B-	.	2g
[1F	1A	.	[1a
.	.	2c	.
=19	=19	=19	=19
2F]	1r	2A	2a]
2E	.	2.c	2g
1D	2r	.	1f
.	.	4B-	.
.	2F	[2B-	.
=20	=20	=20	=20
2C	2c	4B-]	2e
.	.	4A	.
2AA	2c	1A	1f
1BB-	[1d	.	.
.	.	2G	4e
.	.	.	4d
=21	=21	=21	=21
0AA	2d]	2.A	2f
.	2c	.	2e
.	.	4B-	.
.	4A	4c	2r
.	4B-	4d	.
.	4c	4e	2c
.	4A	4c	.
=22	=22	=22	=22
0r	2B-	2d	2g
.	2c	2e	2g
.	4F	2c	1a
.	4G	.	.
.	4A	[2f	.
.	4B-	.	.
=23	=23	=23	=23
0r	1c	2f]	2g
.	.	2e	4cc
.	.	.	4b-
.	2.d	2.f	4a
.	.	.	4g
.	.	.	2a
.	4c	4e	.
=24	=24	=24	=24
2r	2B-	2d	4g
.	.	.	4f
2FF	2A	2c	1f
2C	1G	1c	.
2C	.	.	2e
=25	=25	=25	=25
1D	1F	2r	2f
.	.	2F	2d
2C	2r	2c	1e
2AA	2C	2c	.
=26	=26	=26	=26
2BB-	2G	2d	1r
2C	2G	2e	.
2FF	1A	2.f	2r
[2F	.	.	2c
.	.	8e	.
.	.	8d	.
=27	=27	=27	=27
2F]	1G	1c	2g
2E	.	.	2g
2.F	2r	1r	1a
.	[2c	.	.
8E	.	.	.
8D	.	.	.
=28	=28	=28	=28
2E	4c]	2r	2g
.	4B-	.	.
1F	4A	2F	1a
.	4G	.	.
.	2F	2c	.
2E	2G	2c	[2g
=29	=29	=29	=29
2D	2A	1d	4g]
.	.	.	4f
2BB-	2B-	.	1f
1C	1G	[1c	.
.	.	.	2e
=30	=30	=30	=30
2FF	2.A	1c]	[0f
2.F	.	.	.
.	4B-	.	.
.	2c	1A	.
4E	.	.	.
4D	[2d	.	.
4C	.	.	.
=31	=31	=31	=31
2BB-	2d]	2B-	1f_
2AA	2c	2c	.
1BB-	1B-	1d	1f_
=32	=32	=32	=32
0FF	0A	0c	0f]
=33	=33	=33	=33
0r	0r	1f	0r
.	.	2d	.
.	.	2e	.
=34	=34	=34	=34
0r	0r	1f	1r
.	.	1g	1b-
=35	=35	=35	=35
0r	0r	1c	2g
.	.	.	2a
.	.	1d	1b-
=36	=36	=36	=36
0r	0r	4c	1cc
.	.	4d	.
.	.	4e	.
.	.	4c	.
.	.	4d	1f
.	.	4e	.
.	.	[2f	.
=37	=37	=37	=37
0r	1r	2f]	2.g
.	.	2e	.
.	.	.	4a
.	1B-	2.d	4b-
.	.	.	4cc
.	.	.	[2dd
.	.	4c	.
=38	=38	=38	=38
0r	2G	2B-	2dd]
.	2A	2c	2cc
.	1B-	2d	2b-
.	.	[2f	2a
=39	=39	=39	=39
0r	1c	2f]	1g
.	.	2e	.
.	1F	2d	2f
.	.	[2c	2e
=40	=40	=40	=40
0r	1G	2c]	1d
.	.	2B-	.
.	1F	4A	2r
.	.	4B-	.
.	.	4c	2f
.	.	4A	.
=41	=41	=41	=41
0r	1r	2B-	2d
.	.	2c	2e
.	2r	1d	1f
.	2B-	.	.
=42	=42	=42	=42
0r	2G	0r	2g
.	2A	.	2c
.	1B-	.	4d
.	.	.	4e
.	.	.	4f
.	.	.	4g
=43	=43	=43	=43
0r	2c	2r	4a
.	.	.	4b-
.	2F	2f	4cc
.	.	.	4a
.	1G	2d	1b-
.	.	2e	.
=44	=44	=44	=44
0r	2F	1f	2a
.	2.B-	.	2.dd
.	.	2g	.
.	4c	.	4cc
.	2A	2c	[2cc
=45	=45	=45	=45
0r	1G	1d	2cc]
.	.	.	2b
.	2A	1c	[1cc
.	[2F	.	.
=46	=46	=46	=46
0r	4F]	2r	1cc]
.	4G	.	.
.	4A	2.c	.
.	4B-	.	.
.	2c	.	1r
.	.	4d	.
.	2A	4e	.
.	.	4f	.
=47	=47	=47	=47
0r	2B-	2g	1r
.	2c	2e	.
.	2.d	2f	2r
.	.	4B-	[2f
.	4c	4c	.
=48	=48	=48	=48
0r	2B-	4d	4f]
.	.	4e	4g
.	4A	2f	4a
.	4G	.	4b-
.	2A	2e	2cc
.	2F	[2f	2a
=49	=49	=49	=49
0r	2G	2f]	2b-
.	2.A	2e	2.cc
.	.	[1f	.
.	4G	.	4b-
.	4F	.	4a
.	4E	.	4g
=50	=50	=50	=50
0r	4D	1f]	2.a
.	4E	.	.
.	4F	.	.
.	4G	.	4g
.	4A	1r	2f
.	4B-	.	.
.	[2c	.	2e
=51	=51	=51	=51
0r	2c]	1r	1d
.	2B-	.	.
.	4c	2r	1c
.	4B-	.	.
.	4A	[2F	.
.	4G	.	.
=52	=52	=52	=52
0r	0A	4F]	2r
.	.	4G	.
.	.	4A	2.c
.	.	4B-	.
.	.	2c	.
.	.	.	4d
.	.	2A	4e
.	.	.	4f
=53	=53	=53	=53
0r	0r	2B-	2g
.	.	2c	2e
.	.	2d	2f
.	.	[2c	2g
=54	=54	=54	=54
0r	2r	4c]	0a
.	.	4B-	.
.	2.F	4A	.
.	.	4G	.
.	.	2F	.
.	4G	.	.
.	4A	4c	.
.	4B-	4d	.
=55	=55	=55	=55
0r	2c	4e	2g
.	.	4c	.
.	2A	1f	2f
.	2B-	.	1g
.	2c	2e	.
=56	=56	=56	=56
0r	2.d	2.f	2f
.	.	.	2a
.	4c	4e	.
.	2B-	2d	2b-
.	2A	2c	[2cc
=57	=57	=57	=57
0r	1B-	1d	4cc]
.	.	.	4b-
.	.	.	1b-
.	1F	1c	.
.	.	.	2a
=58	=58	=58	=58
2r	2r	1B-	1b-
2BB-	2B-	.	.
2C	2G	1r	1r
2D	2F	.	.
=59	=59	=59	=59
2E	2G	0r	1r
2C	2A	.	.
2.D	2F	.	2r
.	2A	.	2f
4C	.	.	.
=60	=60	=60	=60
2BB-	2G	0r	2g
2AA	1F	.	2a
1GG	.	.	2b-
.	2E	.	2g
=61	=61	=61	=61
1FF	2F	2r	4a
.	.	.	4b-
.	2F	2f	4cc
.	.	.	4a
1r	2G	2d	2b-
.	2A	2c	4a
.	.	.	4g
=62	=62	=62	=62
0r	2B-	2d	2f
.	2G	2e	2g
.	2A	2c	2e
.	4G	2e	[2g
.	4A	.	.
=63	=63	=63	=63
0r	2B	2d	4g]
.	.	.	4f
.	2c	1c	2e
.	1G	.	1d
.	.	2B	.
=64	=64	=64	=64
1F	2.A	1c	2c
.	.	.	2.f
.	4G	.	.
2D	4A	1r	.
.	4B-	.	4g
2C	4c	.	[2a
.	4A	.	.
=65	=65	=65	=65
2D	1B-	1r	2a]
2E	.	.	2g
[1F	1A	1c	2a
.	.	.	2cc
=66	=66	=66	=66
2F]	0r	2d	2a
2E	.	2e	2g
2D	.	2f	2a
2GG	.	2d	2b-
=67	=67	=67	=67
2r	1c	1e	2.g
2C	.	.	.
.	.	.	4a
2D	2A	2d	2f
2E	2G	[2c	[2g
=68	=68	=68	=68
2F	2A	4c]	4g]
.	.	4A	4f
2BB-	2B-	2d	1f
1C	1G	1c	.
.	.	.	2e
=69	=69	=69	=69
0FF	0F	0A	0f
==	==	==	==
*-	*-	*-	*-
!!!CDT: 1525/^1526/-1594/2/2
!!!OCY: Italia
!!!AGN: Mass (Paraphrase)
!!!AST: renaissance, vocal
!!!ASW: Antiphon
!!!PWK: Masses, Book 12
!!!RNB: Cadence finals: C
!!!YOR: Le Opere Complete, v. 29, p. 1
!!!YOO: Rome, Italy: Fratelli Scalera
!!!END: 1992//
!!!EED: John Miller
!!!YEC: Copyright 2000, John Miller
!!!YEN: United States of America
!!!YEM: Rights to all derivative electronic formats reserved.
!!!YEM: Refer to licensing agreement for further details.
!!!YEM: This file must be accompanied by the licensing agreement.
!!!YEM: A copy of the licensing agreement may be found at http://www.music-cog.ohio-state.edu/HumdrumDatabases/Palestrina/license.txt
!!!EMD: converted to Humdrum by Bret Aarden
